svg/US/RI.svg

<?xml version="1.0" encoding="UTF-8" standalone="no"?>
<svg width="90px" height="65px" viewBox="0 0 90 65" version="1.1" xmlns="http://www.w3.org/2000/svg" xmlns:xlink="http://www.w3.org/1999/xlink">
    <!-- Generator: Sketch 3.7.2 (28276) - http://www.bohemiancoding.com/sketch -->
    <title>Rhode Island</title>
    <desc>Created with Sketch.</desc>
    <defs>
        <path d="M10,0 C4.477,0 0,4.477 0,10 L0,55 C0,60.523 4.477,65 10,65 L80,65 C85.523,65 90,60.523 90,55 L90,10 C90,4.477 85.523,0 80,0 L10,0 L10,0 Z M0,0 L90,0 L90,65 L0,65 L0,0 L0,0 Z" id="path-1"></path>
        <path d="M10,0 C4.477,0 0,4.477 0,10 L0,10 L0,55 C0,60.523 4.477,65 10,65 L10,65 L80,65 C85.523,65 90,60.523 90,55 L90,55 L90,10 C90,4.477 85.523,0 80,0 L80,0 L10,0 Z" id="path-3"></path>
    </defs>
    <g id="Page-1" stroke="none" stroke-width="1" fill="none" fill-rule="evenodd">
        <g id="Rhode-Island">
            <g id="Page-1">
                <g id="Group-7">
                    <g id="Group-3">
                        <mask id="mask-2" fill="white">
                            <use xlink:href="#path-1"></use>
                        </mask>
                        <g id="Clip-2"></g>
                        <path d="M80,65 L10,65 C4.477,65 0,60.523 0,55 L0,10 C0,4.477 4.477,0 10,0 L80,0 C85.523,0 90,4.477 90,10 L90,55 C90,60.523 85.523,65 80,65" id="Fill-1" fill="#FFB200" mask="url(#mask-2)"></path>
                    </g>
                    <mask id="mask-4" fill="white">
                        <use xlink:href="#path-3"></use>
                    </mask>
                    <g id="Clip-5"></g>
                    <polygon id="Fill-4" fill="#E89B00" mask="url(#mask-4)" points="0 65 90 65 90 0 0 0"></polygon>
                    <path d="M80,63 L0,63 L0,2 L80,2 C84.418,2 88,5.582 88,10 L88,55 C88,59.418 84.418,63 80,63" id="Fill-6" fill="#F1F2F2" mask="url(#mask-4)"></path>
                </g>
                <path d="M55.3713,10.0676 L51.8133,8.2006 L53.5943,11.8016 L50.7193,14.6086 L54.6953,14.0276 L56.4753,17.6296 L57.1523,13.6696 L61.1273,13.0886 L57.5703,11.2216 L58.2463,7.2616 L55.3713,10.0676 Z M64.6083,17.4566 L62.3263,14.1506 L62.2283,18.1666 L58.3783,19.3156 L62.1683,20.6496 L62.0713,24.6656 L64.5113,21.4736 L68.3013,22.8066 L66.0183,19.5006 L68.4583,16.3076 L64.6083,17.4566 Z M69.3533,28.2926 L68.8693,24.3036 L66.9163,27.8156 L62.9733,27.0436 L65.7093,29.9856 L63.7573,33.4966 L67.4003,31.8036 L70.1363,34.7456 L69.6523,30.7576 L73.2963,29.0646 L69.3533,28.2926 Z M68.5193,40.0916 L69.9433,36.3346 L66.5833,38.5366 L63.4503,36.0206 L64.5063,39.8976 L61.1453,42.0996 L65.1583,42.2936 L66.2133,46.1706 L67.6383,42.4136 L71.6513,42.6076 L68.5193,40.0916 Z M62.2973,50.1516 L65.3043,47.4876 L61.3053,47.8756 L59.7003,44.1916 L58.8343,48.1156 L54.8353,48.5026 L58.2983,50.5396 L57.4313,54.4626 L60.4383,51.7986 L63.9013,53.8356 L62.2973,50.1516 Z M52.1123,56.1686 L56.0133,55.2066 L52.2923,53.6916 L52.5833,49.6846 L49.9923,52.7556 L46.2713,51.2406 L48.3913,54.6536 L45.8003,57.7246 L49.7013,56.7626 L51.8213,60.1756 L52.1123,56.1686 Z M40.2983,56.7626 L44.1993,57.7246 L41.6083,54.6536 L43.7283,51.2406 L40.0073,52.7556 L37.4163,49.6846 L37.7073,53.6916 L33.9863,55.2066 L37.8873,56.1686 L38.1783,60.1756 L40.2983,56.7626 Z M29.5613,51.7986 L32.5693,54.4626 L31.7023,50.5396 L35.1653,48.5026 L31.1663,48.1156 L30.2993,44.1916 L28.6943,47.8756 L24.6953,47.4876 L27.7033,50.1516 L26.0983,53.8356 L29.5613,51.7986 Z M22.3613,42.4136 L23.7863,46.1706 L24.8413,42.2936 L28.8553,42.0996 L25.4943,39.8976 L26.5493,36.0206 L23.4173,38.5366 L20.0563,36.3346 L21.4813,40.0916 L18.3483,42.6076 L22.3613,42.4136 Z M20.3473,30.7576 L19.8633,34.7456 L22.5993,31.8036 L26.2433,33.4966 L24.2903,29.9856 L27.0263,27.0436 L23.0833,27.8156 L21.1313,24.3036 L20.6473,28.2926 L16.7043,29.0646 L20.3473,30.7576 Z M23.9813,19.5006 L21.6993,22.8066 L25.4893,21.4736 L27.9283,24.6656 L27.8313,20.6496 L31.6213,19.3156 L27.7713,18.1666 L27.6743,14.1506 L25.3923,17.4566 L21.5423,16.3076 L23.9813,19.5006 Z M32.4303,11.2216 L28.8723,13.0886 L32.8483,13.6696 L33.5243,17.6296 L35.3053,14.0276 L39.2803,14.6086 L36.4053,11.8016 L38.1863,8.2006 L34.6283,10.0676 L31.7533,7.2616 L32.4303,11.2216 Z M45.0003,3.9966 L46.2413,7.8176 L50.2593,7.8176 L47.0093,10.1786 L48.2503,13.9996 L45.0003,11.6386 L41.7493,13.9996 L42.9913,10.1786 L39.7403,7.8176 L43.7583,7.8176 L45.0003,3.9966 Z" id="Fill-8" fill="#E89B00"></path>
                <g id="Group-13" transform="translate(33.000000, 16.000000)">
                    <path d="M10.4448,3.2396 C10.4448,2.3816 11.1428,1.6826 11.9998,1.6796 C12.8578,1.6826 13.5548,2.3816 13.5548,3.2396 C13.5548,4.0986 12.8568,4.7986 12.0018,4.7996 C11.1428,4.7986 10.4448,4.0986 10.4448,3.2396 M23.4878,16.9576 L20.1318,18.3466 C19.9008,18.5906 19.9758,18.9806 20.2098,19.3836 C20.0678,19.4606 19.9288,19.5386 19.7728,19.6116 C19.2858,19.8466 18.7428,20.0686 18.1498,20.2506 C17.8588,20.3536 17.5438,20.4226 17.2328,20.5126 C16.9108,20.5746 16.5918,20.6626 16.2538,20.7086 C15.9188,20.7636 15.5788,20.8176 15.2288,20.8456 C14.8828,20.8896 14.5268,20.9046 14.1708,20.9226 C13.7838,20.9326 13.3878,20.9506 12.9958,20.9646 L12.9958,9.0056 C13.1608,9.0036 13.3278,9.0016 13.4918,8.9996 C13.9828,8.9936 14.4678,8.9636 14.9358,8.9466 C15.4038,8.9326 15.8568,8.8976 16.2868,8.8686 C16.7158,8.8436 17.1218,8.8046 17.4968,8.7676 C17.5728,8.7606 17.6418,8.7536 17.7158,8.7456 C17.9538,9.1016 18.3398,9.3496 18.7998,9.3496 C19.5328,9.3496 20.1278,8.7556 20.1278,8.0216 C20.1278,7.2876 19.5328,6.6936 18.7998,6.6936 C18.3398,6.6936 17.9538,6.9416 17.7158,7.2976 C17.6418,7.2896 17.5728,7.2826 17.4968,7.2756 C17.1218,7.2386 16.7158,7.1996 16.2868,7.1746 C15.8568,7.1456 15.4038,7.1106 14.9358,7.0966 C14.4678,7.0796 13.9828,7.0496 13.4918,7.0436 C13.3278,7.0416 13.1608,7.0396 12.9958,7.0376 L12.9958,6.2146 C14.2428,5.7936 15.1488,4.6256 15.1488,3.2396 C15.1488,1.5046 13.7368,0.0896 12.0018,0.0856 L11.9978,0.0856 C10.2628,0.0896 8.8518,1.5046 8.8518,3.2396 C8.8518,4.6246 9.7568,5.7926 11.0038,6.2146 L11.0038,7.0376 C10.8388,7.0396 10.6718,7.0416 10.5088,7.0436 C10.0168,7.0496 9.5328,7.0796 9.0638,7.0966 C8.5958,7.1106 8.1428,7.1456 7.7138,7.1746 C7.2838,7.1996 6.8778,7.2386 6.5028,7.2756 C6.4268,7.2826 6.3578,7.2896 6.2848,7.2976 C6.0458,6.9416 5.6608,6.6936 5.2008,6.6936 C4.4668,6.6936 3.8728,7.2876 3.8728,8.0216 C3.8728,8.7556 4.4668,9.3496 5.2008,9.3496 C5.6608,9.3496 6.0458,9.1016 6.2848,8.7456 C6.3578,8.7536 6.4268,8.7606 6.5028,8.7676 C6.8778,8.8046 7.2838,8.8436 7.7138,8.8686 C8.1428,8.8976 8.5958,8.9326 9.0638,8.9466 C9.5328,8.9636 10.0168,8.9936 10.5088,8.9996 C10.6718,9.0016 10.8388,9.0036 11.0038,9.0056 L11.0038,20.9586 C10.9638,20.9566 10.9238,20.9556 10.8838,20.9536 C10.5328,20.9266 10.1888,20.9496 9.8298,20.9226 C9.4728,20.9046 9.1168,20.8896 8.7708,20.8456 C8.4208,20.8176 8.0808,20.7636 7.7458,20.7086 C7.4078,20.6626 7.0888,20.5746 6.7668,20.5126 C6.4558,20.4226 6.1418,20.3536 5.8508,20.2506 C5.2568,20.0686 4.7138,19.8466 4.2268,19.6116 C4.0708,19.5386 3.9328,19.4606 3.7898,19.3836 C4.0238,18.9806 4.0988,18.5906 3.8678,18.3466 L0.5118,16.9576 C0.2968,16.8686 0.0778,17.0766 0.1548,17.2956 L1.3648,20.7206 C1.6788,21.0516 2.2918,20.8336 2.8488,20.4126 C3.0448,20.5686 3.2478,20.7316 3.4748,20.8816 C3.9858,21.2266 4.5648,21.5696 5.2058,21.8676 C5.5228,22.0256 5.8628,22.1476 6.2058,22.2926 C6.5548,22.4086 6.9098,22.5516 7.2798,22.6516 C7.6478,22.7626 8.0228,22.8766 8.4078,22.9626 C8.7908,23.0646 9.1828,23.1366 9.5798,23.2106 C9.9718,23.2996 10.3938,23.3186 10.8058,23.4206 C11.0168,23.4936 11.1938,23.5186 11.3868,23.7066 C11.4808,23.7956 11.5748,23.8946 11.6698,23.9686 C11.7168,24.0056 11.7638,24.0386 11.8118,24.0556 C11.8358,24.0666 11.8598,24.0716 11.8838,24.0776 C11.8958,24.0816 11.9078,24.0816 11.9198,24.0826 L11.9378,24.0846 L11.9468,24.0856 L11.9998,24.0866 C12.2098,24.0956 12.4168,23.8886 12.6168,23.7066 C12.8178,23.5186 13.0188,23.4926 13.2198,23.4196 C13.6218,23.3166 14.0248,23.2996 14.4208,23.2106 C14.8168,23.1366 15.2088,23.0646 15.5928,22.9626 C15.9778,22.8766 16.3528,22.7626 16.7208,22.6516 C17.0898,22.5516 17.4448,22.4086 17.7938,22.2926 C18.1368,22.1476 18.4768,22.0256 18.7948,21.8676 C19.4358,21.5696 20.0138,21.2266 20.5258,20.8816 C20.7518,20.7316 20.9548,20.5686 21.1508,20.4126 C21.7078,20.8336 22.3218,21.0516 22.6348,20.7206 L23.8448,17.2956 C23.9218,17.0766 23.7028,16.8686 23.4878,16.9576" id="Fill-9" fill="#E89B00"></path>
                    <path d="M23.3039,29.504 L21.3169,28.156 L22.6639,26.169 L19.2169,26.83 L19.2169,25 C14.2249,27.175 9.3989,27.353 4.7829,25 L4.7829,26.83 L1.3359,26.169 L2.6839,28.156 L0.6959,29.504 L6.5329,30.623 L6.7959,29.252 C10.1599,30.427 13.6299,30.334 17.1879,29.168 L17.4669,30.623 L23.3039,29.504 Z" id="Fill-11" fill="#00247D"></path>
                </g>
            </g>
        </g>
    </g>
</svg>

<svg width="90" height="65" viewBox="0 0 90 65" xmlns="http://www.w3.org/2000/svg" xmlns:xlink="http://www.w3.org/1999/xlink"><title>Rhode Island</title><defs><path d="M10 0C4.477 0 0 4.477 0 10v45c0 5.523 4.477 10 10 10h70c5.523 0 10-4.477 10-10V10c0-5.523-4.477-10-10-10H10zM0 0h90v65H0V0z" id="a"/><path d="M10 0C4.477 0 0 4.477 0 10v45c0 5.523 4.477 10 10 10h70c5.523 0 10-4.477 10-10V10c0-5.523-4.477-10-10-10H10z" id="c"/></defs><g fill="none" fill-rule="evenodd"><mask id="b" fill="#fff"><use xlink:href="#a"/></mask><path d="M80 65H10C4.477 65 0 60.523 0 55V10C0 4.477 4.477 0 10 0h70c5.523 0 10 4.477 10 10v45c0 5.523-4.477 10-10 10" fill="#FFB200" mask="url(#b)"/><mask id="d" fill="#fff"><use xlink:href="#c"/></mask><path fill="#E89B00" mask="url(#d)" d="M0 65h90V0H0z"/><path d="M80 63H0V2h80a8 8 0 0 1 8 8v45a8 8 0 0 1-8 8" fill="#F1F2F2" mask="url(#d)"/><path d="M55.371 10.068L51.813 8.2l1.781 3.6-2.875 2.808 3.976-.581 1.78 3.602.677-3.96 3.975-.581-3.557-1.867.676-3.96-2.875 2.806zm9.237 7.389l-2.282-3.306-.098 4.016-3.85 1.149 3.79 1.334-.097 4.016 2.44-3.192 3.79 1.333-2.283-3.306 2.44-3.193-3.85 1.149zm4.745 10.836l-.484-3.99-1.953 3.513-3.943-.772 2.736 2.942-1.952 3.51 3.643-1.692 2.736 2.942-.484-3.988 3.644-1.693-3.943-.772zm-.834 11.799l1.424-3.757-3.36 2.202-3.133-2.516 1.056 3.877-3.36 2.202 4.012.194 1.055 3.877 1.425-3.757 4.013.194-3.132-2.516zm-6.222 10.06l3.007-2.664-3.999.388-1.605-3.684-.866 3.924-3.999.387 3.463 2.037-.867 3.923 3.007-2.664 3.463 2.037-1.604-3.684zm-10.185 6.017l3.901-.962-3.72-1.515.29-4.007-2.59 3.07-3.722-1.514 2.12 3.413-2.59 3.07 3.9-.961 2.12 3.413.291-4.007zm-11.814.594l3.901.962-2.59-3.071 2.12-3.413-3.722 1.515-2.59-3.071.29 4.007-3.72 1.515 3.9.962.291 4.007 2.12-3.413zm-10.737-4.964l3.008 2.664-.867-3.923 3.463-2.037-3.999-.387-.867-3.924-1.605 3.684-3.999-.388 3.008 2.664-1.605 3.684 3.463-2.037zm-7.2-9.385l1.425 3.757 1.055-3.877 4.014-.194-3.36-2.202 1.054-3.877-3.132 2.516-3.36-2.202 1.424 3.757-3.133 2.516 4.013-.194zm-2.014-11.656l-.484 3.988 2.736-2.942 3.644 1.693-1.953-3.511 2.736-2.942-3.943.772-1.952-3.512-.484 3.989-3.943.772 3.643 1.693zM23.981 19.5L21.7 22.807l3.79-1.333 2.44 3.192-.098-4.016 3.79-1.334-3.85-1.15-.097-4.015-2.282 3.306-3.85-1.15 2.44 3.194zm8.45-8.28l-3.559 1.868 3.976.58.676 3.96 1.781-3.601 3.975.58-2.875-2.806L38.186 8.2l-3.558 1.867-2.875-2.806.677 3.96zM45 3.998l1.24 3.82h4.018l-3.25 2.362 1.241 3.82L45 11.64l-3.25 2.36 1.241-3.82-3.25-2.361h4.017L45 3.997z" fill="#E89B00"/><g><path d="M43.445 19.24c0-.858.698-1.557 1.555-1.56a1.56 1.56 0 0 1 .002 3.12 1.561 1.561 0 0 1-1.557-1.56m13.043 13.718l-3.356 1.389c-.231.244-.156.634.078 1.037-.142.077-.281.155-.437.228-.487.235-1.03.457-1.623.639-.291.103-.606.172-.917.262-.322.062-.641.15-.98.196-.334.055-.674.109-1.024.137-.346.044-.702.059-1.058.077-.387.01-.783.028-1.175.042v-11.96l.496-.005c.49-.006.976-.036 1.444-.053.468-.014.92-.05 1.35-.078a29.845 29.845 0 0 0 1.43-.123c.238.356.624.604 1.084.604a1.328 1.328 0 1 0 0-2.656c-.46 0-.846.248-1.084.604a29.845 29.845 0 0 0-1.429-.123c-.43-.03-.883-.064-1.351-.078-.468-.017-.953-.047-1.444-.053l-.496-.006v-.823a3.148 3.148 0 0 0 2.153-2.975 3.16 3.16 0 0 0-3.147-3.154h-.004a3.159 3.159 0 0 0-3.146 3.154c0 1.385.905 2.553 2.152 2.975v.823l-.495.006c-.492.006-.976.036-1.445.053-.468.014-.921.049-1.35.078a29.75 29.75 0 0 0-1.43.123c-.238-.356-.623-.604-1.083-.604a1.327 1.327 0 1 0 0 2.656c.46 0 .845-.248 1.084-.604l.218.022c.375.037.78.076 1.21.1.43.03.883.065 1.35.079.47.017.954.047 1.446.053l.495.006v11.953l-.12-.005c-.351-.027-.695-.004-1.054-.031-.357-.018-.713-.033-1.06-.077-.35-.028-.69-.082-1.024-.137-.338-.046-.657-.134-.98-.196-.31-.09-.624-.16-.915-.262a11.475 11.475 0 0 1-1.624-.64c-.156-.072-.294-.15-.437-.227.234-.403.309-.793.078-1.037l-3.356-1.39a.27.27 0 0 0-.357.339l1.21 3.425c.314.33.927.113 1.484-.308.196.156.399.319.626.469.51.345 1.09.688 1.73.986.318.158.658.28 1 .425.35.116.705.259 1.075.359.368.11.743.225 1.128.31.383.103.775.175 1.172.249.392.089.814.108 1.226.21.21.073.388.098.58.286.095.089.189.188.284.262.047.037.094.07.142.087.024.01.048.016.072.022.012.004.024.004.036.005l.018.002h.009l.053.002c.21.009.417-.198.617-.38.2-.188.402-.214.603-.287.402-.103.805-.12 1.2-.21.397-.073.789-.145 1.173-.247.385-.086.76-.2 1.128-.311.369-.1.724-.243 1.073-.36.343-.144.683-.266 1-.424a12.642 12.642 0 0 0 1.732-.986c.226-.15.429-.313.625-.47.557.422 1.17.64 1.484.309l1.21-3.425a.27.27 0 0 0-.357-.338" fill="#E89B00"/><path d="M56.304 45.504l-1.987-1.348 1.347-1.987-3.447.661V41c-4.992 2.175-9.818 2.353-14.434 0v1.83l-3.447-.661 1.348 1.987-1.988 1.348 5.837 1.119.263-1.371c3.364 1.175 6.834 1.082 10.392-.084l.279 1.455 5.837-1.119z" fill="#00247D"/></g></g></svg>
